images/svg/design-img.svg

<svg width="117" height="48" viewBox="0 0 117 48" fill="none" xmlns="http://www.w3.org/2000/svg">
<g clip-path="url(#clip0_2_203)">
<path d="M0 29.2057V0H17.2008V29.1914H0V29.2057ZM15.1168 22.411L15.5593 19.185L13.9605 19.028L13.4752 21.5117C12.4759 22.0113 11.2483 22.254 9.77807 22.254C7.77963 22.254 6.19515 21.6259 5.03891 20.3555C3.8684 19.0851 3.29741 17.4149 3.29741 15.3309C3.29741 13.3039 3.8684 11.6337 4.99609 10.3205C6.12378 9.00723 7.60836 8.3506 9.44978 8.3506C10.3919 8.3506 11.1912 8.4648 11.8336 8.67892C12.476 8.89303 13.0612 9.17853 13.6179 9.54966L14.089 12.0049L15.7163 11.8479L15.2452 8.62182C14.5601 8.03656 13.7464 7.56551 12.8043 7.19437C11.8621 6.8375 10.6917 6.65193 9.30703 6.65193C7.66545 6.65193 6.25227 7.05162 5.06749 7.86527C3.8827 8.67892 2.95485 9.74951 2.29822 11.077C1.64159 12.4188 1.31328 13.8606 1.31328 15.4022C1.31328 17.8432 2.06982 19.8844 3.58292 21.5117C5.09602 23.139 7.0659 23.9527 9.50685 23.9527C11.905 23.9527 13.775 23.4388 15.1168 22.411Z" fill="#292F36"/>
<path d="M23.0391 29.2057V0H30.4333V29.1914H23.0391V29.2057ZM23.8241 23.6957H29.6624V22.2255H27.6498V5.92393H23.7956V7.39421H25.8369V22.2255H23.8241V23.6957Z" fill="#292F36"/>
<path d="M36.2717 29.2057V0H49.2616V29.1914H36.2717V29.2057ZM38.627 13.0755L38.2131 15.7305L39.7119 15.9161L40.1544 13.9319C40.7968 13.6179 41.5248 13.4609 42.3812 13.4609C43.409 13.4609 44.1085 13.7178 44.4653 14.2317C44.8222 14.7456 44.9935 15.4165 44.9935 16.2444V17.2722C44.6795 17.2436 44.3511 17.2151 43.9943 17.2008C43.6374 17.1865 43.2948 17.1723 42.9522 17.1723C41.6675 17.1723 40.4399 17.4007 39.2979 17.8574C38.156 18.3142 37.585 19.2706 37.585 20.7124C37.585 21.94 37.9704 22.7822 38.7555 23.2389C39.5406 23.71 40.3114 23.9384 41.068 23.9384C41.9958 23.9384 42.7952 23.6957 43.4518 23.2104C44.1084 22.7251 44.6224 22.1826 44.9935 21.5545V21.6116C45.022 23.1676 45.7215 23.9384 47.0919 23.9384C47.62 23.9384 48.1196 23.8099 48.5907 23.553L48.5621 22.3682C48.3337 22.4681 48.0768 22.5252 47.7913 22.5252C47.1347 22.5252 46.8063 22.1113 46.8063 21.2833V15.8162C46.8063 13.2468 45.436 11.9621 42.6953 11.9621C41.9387 11.9621 41.225 12.0477 40.5541 12.219C39.8689 12.4046 39.2265 12.6901 38.627 13.0755ZM44.9792 19.3848C44.9078 20.3269 44.5224 21.0835 43.823 21.6259C43.1235 22.1826 42.3812 22.4538 41.5819 22.4538C41.0822 22.4538 40.5969 22.3111 40.1402 22.0399C39.6691 21.7687 39.4407 21.2548 39.4407 20.5125C39.4407 19.6132 39.7976 19.0422 40.4827 18.771C41.1822 18.4998 41.953 18.3713 42.8237 18.3713C43.2091 18.3713 43.5803 18.3856 43.9371 18.4284C44.294 18.457 44.6509 18.4855 44.9649 18.4998V19.3848H44.9792Z" fill="#292F36"/>
<path d="M55.114 29.2057V0H66.919V29.1914H55.114V29.2057ZM65.6772 20.3698C65.6772 19.4562 65.4345 18.7853 64.9491 18.3428C64.4638 17.9003 63.8786 17.6005 63.1648 17.4292C62.4511 17.2579 61.7517 17.1152 61.0522 17.001C60.3528 16.8868 59.7532 16.7012 59.2679 16.4585C58.7826 16.2159 58.5399 15.7876 58.5399 15.1738C58.5399 14.5886 58.7683 14.1603 59.2393 13.8749C59.7104 13.5894 60.2956 13.4609 61.0236 13.4609C61.8658 13.4609 62.651 13.6465 63.379 14.0319L63.6645 15.8876L65.1633 15.702L64.8778 13.0184C64.3925 12.7186 63.8072 12.4759 63.1078 12.2761C62.4083 12.0763 61.666 11.9621 60.8666 11.9621C59.8103 11.9621 58.8397 12.219 57.9404 12.7186C57.0411 13.2182 56.5986 14.0747 56.5986 15.3023C56.5986 16.2016 56.8412 16.8582 57.3265 17.2722C57.8119 17.7004 58.4114 17.9859 59.1394 18.1572C59.8674 18.3285 60.5811 18.4712 61.2949 18.5997C62.0086 18.7139 62.6081 18.9138 63.0935 19.1707C63.5788 19.4276 63.8215 19.8702 63.8215 20.5125C63.8215 21.1691 63.5074 21.6545 62.8793 21.9685C62.2512 22.2826 61.5375 22.4396 60.7239 22.4396C59.8103 22.4396 58.9538 22.254 58.1687 21.8686L58.2401 20.3412L56.7984 20.1842L56.4415 22.7964C56.9411 23.1247 57.5978 23.396 58.3971 23.6101C59.1965 23.8242 59.9959 23.9384 60.8095 23.9384C62.1942 23.9384 63.3504 23.6244 64.2783 22.982C65.2061 22.3682 65.6772 21.4832 65.6772 20.3698Z" fill="#292F36"/>
<path d="M72.7573 29.2057V0H84.5623V29.1914H72.7573V29.2057ZM83.3204 20.3698C83.3204 19.4562 83.0777 18.7853 82.5924 18.3428C82.1071 17.9003 81.5218 17.6005 80.8081 17.4292C80.0944 17.2579 79.3949 17.1152 78.6955 17.001C77.996 16.8868 77.3965 16.7012 76.9112 16.4585C76.4258 16.2159 76.1832 15.7876 76.1832 15.1738C76.1832 14.5886 76.4115 14.1603 76.8826 13.8749C77.3537 13.5894 77.9389 13.4609 78.6669 13.4609C79.5091 13.4609 80.2942 13.6465 81.0222 14.0319L81.3078 15.8876L82.8066 15.702L82.5211 13.0184C82.0357 12.7186 81.4505 12.4759 80.751 12.2761C80.0516 12.0763 79.3093 11.9621 78.5099 11.9621C77.4536 11.9621 76.4829 12.219 75.5837 12.7186C74.6844 13.2182 74.2418 14.0747 74.2418 15.3023C74.2418 16.2016 74.4845 16.8582 74.9699 17.2722C75.4552 17.7004 76.0548 17.9859 76.7828 18.1572C77.5108 18.3285 78.2244 18.4712 78.9381 18.5997C79.6519 18.7139 80.2514 18.9138 80.7367 19.1707C81.2221 19.4276 81.4648 19.8702 81.4648 20.5125C81.4648 21.1691 81.1508 21.6545 80.5227 21.9685C79.8946 22.2826 79.1809 22.4396 78.3672 22.4396C77.4536 22.4396 76.5971 22.254 75.812 21.8686L75.8835 20.3412L74.4417 20.1842L74.0848 22.7964C74.5845 23.1247 75.2411 23.396 76.0404 23.6101C76.8398 23.8242 77.6392 23.9384 78.4528 23.9384C79.8375 23.9384 80.9937 23.6244 81.9216 22.982C82.8494 22.3682 83.3204 21.4832 83.3204 20.3698Z" fill="#292F36"/>
<path d="M90.4006 29.2057V0H98.1803V29.1914H90.4006V29.2057ZM91.5426 23.6957H97.3809V22.2255H95.3681V12.2047H91.4998V13.675H93.5695V22.2255H91.5569V23.6957H91.5426ZM93.3698 6.88033V9.23563H95.3397V6.88033H93.3698Z" fill="#292F36"/>
<path d="M104.019 29.2057V0H116.452V29.1914H104.019V29.2057ZM115.338 19.8273L113.782 19.4847C113.44 21.4261 112.398 22.3967 110.685 22.3967C109.543 22.3967 108.672 22.0113 108.073 21.2405C107.473 20.4697 107.173 19.3848 107.173 18.0145C107.173 16.7726 107.444 15.7163 107.973 14.8312C108.501 13.9462 109.386 13.518 110.613 13.518C111.556 13.518 112.383 13.7321 113.069 14.1603L113.511 16.1017L115.01 15.9161L114.567 13.1468C113.982 12.7043 113.368 12.3903 112.726 12.219C112.084 12.0477 111.384 11.9621 110.628 11.9621C108.843 11.9621 107.487 12.5901 106.602 13.8463C105.703 15.1025 105.26 16.5299 105.26 18.1144C105.26 19.9558 105.731 21.3975 106.688 22.411C107.63 23.4388 108.9 23.9527 110.485 23.9527C112.069 23.9527 113.24 23.5102 113.982 22.6394C114.725 21.7544 115.181 20.8265 115.338 19.8273Z" fill="#292F36"/>
<path d="M7.43708 45.1503C7.10877 45.7498 6.62342 46.2209 5.99534 46.5492C5.35298 46.8775 4.59643 47.0488 3.7114 47.0488H1.15625V38.998H3.7114C4.59643 38.998 5.36726 39.155 5.99534 39.4833C6.62342 39.8116 7.10877 40.2684 7.43708 40.8822C7.76539 41.496 7.92241 42.1955 7.92241 43.0234C7.92241 43.8371 7.76539 44.5508 7.43708 45.1503ZM6.02387 45.3073C6.58058 44.7649 6.85182 44.0083 6.85182 43.0234C6.85182 42.0385 6.58058 41.2819 6.02387 40.7395C5.46716 40.197 4.66779 39.9258 3.61147 39.9258H2.16977V46.121H3.61147C4.66779 46.121 5.46716 45.8498 6.02387 45.3073Z" fill="#292F36"/>
<path d="M13.2183 39.8402V42.5952H16.2731V43.3945H13.2183V46.2066H16.6157V47.0488H12.1763V38.998H16.6157V39.8402H13.2183Z" fill="#292F36"/>
<path d="M25.6372 46.0211C25.4516 46.3494 25.1803 46.6207 24.8092 46.8205C24.4381 47.0204 23.9813 47.1346 23.4246 47.1346C22.8964 47.1346 22.4111 47.0346 21.9971 46.8491C21.5832 46.6492 21.2549 46.3923 20.9979 46.0497C20.7553 45.7071 20.6125 45.3217 20.5697 44.8934H21.6831C21.7116 45.1218 21.783 45.3502 21.9115 45.5643C22.0399 45.7785 22.2398 45.964 22.4824 46.1068C22.7251 46.2495 23.0249 46.3209 23.3818 46.3209C23.8385 46.3209 24.1954 46.2067 24.4381 45.9498C24.6808 45.6928 24.8092 45.3931 24.8092 45.0076C24.8092 44.6793 24.7236 44.4081 24.5523 44.2083C24.381 44.0084 24.1669 43.8371 23.9242 43.7229C23.6815 43.6087 23.3247 43.4803 22.8964 43.3375C22.3825 43.1662 21.9829 43.0092 21.6688 42.8665C21.3548 42.7237 21.0978 42.4953 20.8837 42.1956C20.6696 41.8958 20.5554 41.5104 20.5554 41.025C20.5554 40.6111 20.6553 40.2399 20.8552 39.9116C21.055 39.5976 21.3405 39.3407 21.7259 39.1694C22.097 38.9981 22.5539 38.9124 23.0535 38.9124C23.8386 38.9124 24.4809 39.098 24.9377 39.4834C25.4087 39.8688 25.6657 40.3541 25.7513 40.9537H24.6379C24.5808 40.6396 24.4095 40.3541 24.1526 40.1115C23.8814 39.8688 23.5245 39.7403 23.0677 39.7403C22.6537 39.7403 22.3112 39.8545 22.0685 40.0687C21.8116 40.2828 21.6974 40.5968 21.6974 40.9822C21.6974 41.2963 21.783 41.5532 21.9401 41.7388C22.1113 41.9386 22.3112 42.0814 22.5538 42.1956C22.7965 42.3098 23.1391 42.424 23.553 42.5667C24.0669 42.738 24.4809 42.895 24.8092 43.052C25.1232 43.2091 25.3945 43.4374 25.6086 43.7372C25.8227 44.037 25.9369 44.4509 25.9369 44.9648C25.9084 45.336 25.8227 45.6928 25.6372 46.0211Z" fill="#292F36"/>
<path d="M31.2042 38.998V47.0488H30.1621V38.998H31.2042Z" fill="#292F36"/>
<path d="M41.7387 39.6119C42.381 40.083 42.8093 40.711 43.0234 41.5104H41.9243C41.7387 41.0251 41.4104 40.6254 40.9679 40.3399C40.5253 40.0401 39.9972 39.8974 39.3834 39.8974C38.841 39.8974 38.3413 40.0259 37.9131 40.2828C37.4848 40.5397 37.1423 40.8966 36.8854 41.3677C36.6427 41.8387 36.5142 42.3954 36.5142 43.0378C36.5142 43.6944 36.6427 44.2654 36.8854 44.7365C37.128 45.2075 37.4849 45.5787 37.9274 45.8356C38.3699 46.0925 38.8838 46.221 39.469 46.221C39.9687 46.221 40.4111 46.1068 40.8251 45.907C41.2391 45.6928 41.5674 45.3788 41.8386 44.9791C42.1098 44.5794 42.2526 44.0941 42.3097 43.5517H39.1407V42.7808H43.1804V43.7372C43.109 44.3796 42.9092 44.9506 42.5809 45.4787C42.2526 46.0069 41.8101 46.4066 41.2534 46.7063C40.6967 47.0061 40.0686 47.1631 39.3548 47.1631C38.584 47.1631 37.8988 46.9918 37.2993 46.6492C36.6998 46.3067 36.243 45.8213 35.9147 45.1932C35.5863 44.5794 35.415 43.8657 35.415 43.0663C35.415 42.267 35.5863 41.5532 35.9147 40.9394C36.243 40.3256 36.714 39.826 37.2993 39.4834C37.8845 39.1408 38.5697 38.9553 39.3405 38.9553C40.3112 38.9267 41.0963 39.1551 41.7387 39.6119Z" fill="#292F36"/>
<path d="M53.7152 47.0488H52.6732L48.4907 40.6824V47.0488H47.4487V38.998H48.4907L52.6732 45.3644V38.998H53.7152V47.0488Z" fill="#292F36"/>
<path d="M68.7319 46.0211C68.5463 46.3494 68.2751 46.6207 67.9039 46.8205C67.5328 47.0204 67.076 47.1346 66.5193 47.1346C65.9912 47.1346 65.5058 47.0346 65.0919 46.8491C64.6779 46.6492 64.3496 46.3923 64.0927 46.0497C63.85 45.7071 63.7073 45.3217 63.6644 44.8934H64.7778C64.8064 45.1218 64.8778 45.3502 65.0062 45.5643C65.1347 45.7785 65.3345 45.964 65.5772 46.1068C65.8198 46.2495 66.1196 46.3209 66.4765 46.3209C66.9333 46.3209 67.2901 46.2067 67.5328 45.9498C67.7754 45.6928 67.9039 45.3931 67.9039 45.0076C67.9039 44.6793 67.8183 44.4081 67.647 44.2083C67.4757 44.0084 67.2616 43.8371 67.0189 43.7229C66.7762 43.6087 66.4194 43.4803 65.9912 43.3375C65.4773 43.1662 65.0776 43.0092 64.7635 42.8665C64.4495 42.7237 64.1926 42.4953 63.9784 42.1956C63.7643 41.8958 63.6501 41.5104 63.6501 41.025C63.6501 40.6111 63.75 40.2399 63.9499 39.9116C64.1497 39.5976 64.4353 39.3407 64.8207 39.1694C65.1918 38.9981 65.6486 38.9124 66.1482 38.9124C66.9333 38.9124 67.5757 39.098 68.0324 39.4834C68.5035 39.8688 68.7605 40.3541 68.8461 40.9537H67.7326C67.6755 40.6396 67.5042 40.3541 67.2473 40.1115C66.9761 39.8688 66.6193 39.7403 66.1625 39.7403C65.7485 39.7403 65.4059 39.8545 65.1632 40.0687C64.9063 40.2828 64.7921 40.5968 64.7921 40.9822C64.7921 41.2963 64.8777 41.5532 65.0347 41.7388C65.206 41.9386 65.4059 42.0814 65.6485 42.1956C65.8912 42.3098 66.2338 42.424 66.6478 42.5667C67.1616 42.738 67.5756 42.895 67.9039 43.052C68.218 43.2091 68.4892 43.4374 68.7033 43.7372C68.9174 44.037 69.0316 44.4509 69.0316 44.9648C69.003 45.336 68.9174 45.6928 68.7319 46.0211Z" fill="#292F36"/>
<path d="M78.196 38.998V39.8402H75.9263V47.0488H74.87V39.8402H72.6003V38.998H78.196Z" fill="#292F36"/>
<path d="M83.0493 38.998V43.8228C83.0493 44.6079 83.2206 45.1931 83.5775 45.5785C83.9343 45.9497 84.4054 46.1495 85.0335 46.1495C85.6473 46.1495 86.1184 45.964 86.461 45.5785C86.8035 45.1931 86.9748 44.6222 86.9748 43.8371V39.0123H88.0169V43.8371C88.0169 44.9362 87.7457 45.7641 87.2033 46.3065C86.6608 46.8633 85.9328 47.1345 85.0192 47.1345C84.1199 47.1345 83.392 46.8633 82.8495 46.3065C82.3071 45.7498 82.0359 44.9362 82.0359 43.8371V39.0123H83.0493V38.998Z" fill="#292F36"/>
<path d="M98.7656 45.1503C98.4373 45.7498 97.9519 46.2209 97.3239 46.5492C96.6815 46.8775 95.925 47.0488 95.04 47.0488H92.4849V38.998H95.04C95.925 38.998 96.6958 39.155 97.3239 39.4833C97.9519 39.8116 98.4373 40.2684 98.7656 40.8822C99.0939 41.496 99.251 42.1955 99.251 43.0234C99.251 43.8371 99.0939 44.5508 98.7656 45.1503ZM97.3667 45.3073C97.9234 44.7649 98.1947 44.0083 98.1947 43.0234C98.1947 42.0385 97.9234 41.2819 97.3667 40.7395C96.81 40.197 96.0106 39.9258 94.9543 39.9258H93.5126V46.121H94.9543C95.9964 46.121 96.81 45.8498 97.3667 45.3073Z" fill="#292F36"/>
<path d="M104.561 38.998V47.0488H103.519V38.998H104.561Z" fill="#292F36"/>
<path d="M114.782 39.4264C115.381 39.7833 115.852 40.2686 116.195 40.8967C116.537 41.5247 116.709 42.2385 116.709 43.0236C116.709 43.8087 116.537 44.5224 116.195 45.1505C115.852 45.7786 115.381 46.2639 114.782 46.6208C114.182 46.9776 113.511 47.1489 112.769 47.1489C112.027 47.1489 111.341 46.9776 110.742 46.6208C110.142 46.2639 109.657 45.7786 109.314 45.1505C108.972 44.5224 108.801 43.8087 108.801 43.0236C108.801 42.2385 108.972 41.5247 109.314 40.8967C109.657 40.2686 110.128 39.7833 110.742 39.4264C111.356 39.0695 112.027 38.8982 112.769 38.8982C113.511 38.8982 114.182 39.0695 114.782 39.4264ZM111.27 40.2543C110.827 40.5113 110.485 40.8681 110.242 41.3534C110 41.8245 109.871 42.3812 109.871 43.0236C109.871 43.6517 110 44.2084 110.242 44.6937C110.485 45.179 110.827 45.5359 111.27 45.7928C111.713 46.0498 112.198 46.1782 112.755 46.1782C113.297 46.1782 113.797 46.0498 114.239 45.7928C114.682 45.5359 115.024 45.1648 115.267 44.6937C115.51 44.2226 115.638 43.6659 115.638 43.0378C115.638 42.3955 115.51 41.8388 115.267 41.3677C115.024 40.8967 114.682 40.5255 114.239 40.2686C113.797 40.0116 113.311 39.8832 112.755 39.8832C112.212 39.8689 111.713 39.9974 111.27 40.2543Z" fill="#292F36"/>
</g>
<defs>
<clipPath id="clip0_2_203">
<rect width="117" height="48" fill="white"/>
</clipPath>
</defs>
</svg>

<svg width="117" height="48" fill="none" xmlns="http://www.w3.org/2000/svg"><g clip-path="url(#a)" fill="#292F36"><path d="M0 29.206V0h17.2v29.191H0v.015Zm15.117-6.795.442-3.226-1.598-.157-.486 2.484c-1 .5-2.227.742-3.697.742-1.998 0-3.583-.628-4.74-1.899-1.17-1.27-1.74-2.94-1.74-5.024 0-2.027.57-3.697 1.698-5.01C6.124 9.006 7.608 8.35 9.45 8.35c.942 0 1.741.114 2.384.328.642.214 1.227.5 1.784.87l.471 2.456 1.627-.157-.47-3.226c-.686-.585-1.5-1.056-2.442-1.428-.942-.356-2.112-.542-3.497-.542-1.642 0-3.055.4-4.24 1.213a8.287 8.287 0 0 0-2.769 3.212 9.709 9.709 0 0 0-.985 4.325c0 2.441.757 4.482 2.27 6.11 1.513 1.627 3.483 2.44 5.924 2.44 2.398 0 4.268-.513 5.61-1.541Zm7.923 6.795V0h7.393v29.191H23.04v.015Zm.784-5.51h5.838v-1.47H27.65V5.924h-3.854v1.47h2.04v14.831h-2.012v1.47Zm12.448 5.51V0h12.99v29.191h-12.99v.015Zm2.355-16.13-.414 2.654 1.499.186.442-1.984c.643-.314 1.37-.471 2.227-.471 1.028 0 1.727.257 2.084.77.357.515.528 1.185.528 2.013v1.028a19.304 19.304 0 0 0-.999-.071c-.357-.015-.7-.029-1.042-.029a9.785 9.785 0 0 0-3.654.685c-1.142.457-1.713 1.414-1.713 2.855 0 1.228.385 2.07 1.17 2.527.786.471 1.556.7 2.313.7.928 0 1.727-.243 2.384-.729.656-.485 1.17-1.027 1.541-1.655v.057c.029 1.556.728 2.326 2.099 2.326.528 0 1.028-.128 1.499-.385l-.029-1.185a1.9 1.9 0 0 1-.77.157c-.657 0-.986-.414-.986-1.242v-5.467c0-2.57-1.37-3.854-4.11-3.854-.757 0-1.471.086-2.142.257a6.86 6.86 0 0 0-1.927.857Zm6.352 6.309c-.071.942-.457 1.698-1.156 2.24-.7.558-1.442.829-2.241.829-.5 0-.985-.143-1.442-.414-.47-.271-.7-.785-.7-1.527 0-.9.358-1.47 1.043-1.742.7-.271 1.47-.4 2.34-.4.386 0 .757.015 1.114.057.357.029.714.057 1.028.072v.885h.014Zm10.135 9.821V0h11.805v29.191H55.114v.015Zm10.563-8.836c0-.914-.243-1.585-.728-2.027-.485-.443-1.07-.742-1.784-.914a29.153 29.153 0 0 0-2.113-.428c-.7-.114-1.299-.3-1.784-.543-.485-.242-.728-.67-.728-1.284 0-.585.228-1.014.7-1.3.47-.285 1.056-.413 1.784-.413.842 0 1.627.185 2.355.57l.285 1.857 1.5-.186-.286-2.684c-.486-.3-1.07-.542-1.77-.742-.7-.2-1.442-.314-2.241-.314a5.92 5.92 0 0 0-2.927.757c-.899.5-1.341 1.356-1.341 2.583 0 .9.242 1.556.728 1.97.485.428 1.084.714 1.812.885.728.171 1.442.314 2.156.443.714.114 1.313.314 1.798.57.486.258.728.7.728 1.342 0 .657-.314 1.142-.942 1.456-.628.315-1.341.472-2.155.472-.914 0-1.77-.186-2.555-.571l.071-1.528-1.442-.157-.357 2.612c.5.329 1.157.6 1.956.814a9.27 9.27 0 0 0 2.413.328c1.384 0 2.54-.314 3.468-.956.928-.614 1.4-1.499 1.4-2.612Zm7.08 8.836V0h11.805v29.191H72.757v.015ZM83.32 20.37c0-.914-.242-1.585-.728-2.027-.485-.443-1.07-.742-1.784-.914a29.164 29.164 0 0 0-2.113-.428c-.699-.114-1.298-.3-1.784-.543-.485-.242-.728-.67-.728-1.284 0-.585.228-1.014.7-1.3.47-.285 1.056-.413 1.784-.413.842 0 1.627.185 2.355.57l.286 1.857 1.499-.186-.286-2.684c-.485-.3-1.07-.542-1.77-.742-.7-.2-1.442-.314-2.241-.314a5.92 5.92 0 0 0-2.926.757c-.9.5-1.342 1.356-1.342 2.583 0 .9.242 1.556.728 1.97.485.428 1.085.714 1.813.885a41.33 41.33 0 0 0 2.155.443c.714.114 1.313.314 1.799.57.485.258.728.7.728 1.342 0 .657-.314 1.142-.942 1.456-.628.315-1.342.472-2.156.472-.913 0-1.77-.186-2.555-.571l.072-1.528-1.442-.157-.357 2.612c.5.329 1.156.6 1.955.814a9.27 9.27 0 0 0 2.413.328c1.385 0 2.54-.314 3.469-.956.927-.614 1.398-1.499 1.398-2.612Zm7.08 8.836V0h7.78v29.191H90.4v.015Zm1.143-5.51h5.838v-1.47h-2.013V12.204H91.5v1.47h2.07v8.55h-2.013v1.47h-.014ZM93.37 6.88v2.356h1.97V6.88h-1.97Zm10.649 22.326V0h12.433v29.191h-12.433v.015Zm11.319-9.379-1.556-.342c-.342 1.941-1.384 2.912-3.097 2.912-1.142 0-2.013-.386-2.612-1.156-.6-.771-.9-1.856-.9-3.226 0-1.242.271-2.299.8-3.184.528-.885 1.413-1.313 2.64-1.313.943 0 1.77.214 2.456.642l.442 1.942 1.499-.186-.443-2.77c-.585-.442-1.199-.756-1.841-.927a8.124 8.124 0 0 0-2.098-.257c-1.785 0-3.141.628-4.026 1.884-.899 1.256-1.342 2.684-1.342 4.268 0 1.842.471 3.284 1.428 4.297.942 1.028 2.212 1.542 3.797 1.542 1.584 0 2.755-.443 3.497-1.314.743-.885 1.199-1.813 1.356-2.812ZM7.437 45.15a3.41 3.41 0 0 1-1.442 1.4c-.642.328-1.399.499-2.284.499H1.156v-8.051h2.555c.885 0 1.656.157 2.284.485.628.329 1.114.785 1.442 1.4.328.613.485 1.313.485 2.14 0 .814-.157 1.528-.485 2.127Zm-1.413.157c.557-.542.828-1.299.828-2.284 0-.985-.271-1.741-.828-2.284-.557-.542-1.356-.813-2.413-.813H2.17v6.195h1.44c1.057 0 1.856-.271 2.413-.814Zm7.194-5.467v2.755h3.055v.8h-3.055v2.812h3.398v.842h-4.44v-8.051h4.44v.842h-3.398Zm12.419 6.181c-.185.328-.457.6-.828.8-.37.2-.828.314-1.384.314-.529 0-1.014-.1-1.428-.286a2.644 2.644 0 0 1-1-.8 2.375 2.375 0 0 1-.427-1.156h1.113c.029.229.1.457.229.671.128.215.328.4.57.543.243.142.543.214.9.214.456 0 .813-.114 1.056-.371.243-.257.371-.557.371-.942 0-.329-.085-.6-.257-.8a1.905 1.905 0 0 0-.628-.485c-.242-.114-.6-.243-1.028-.386a12.69 12.69 0 0 1-1.227-.47 1.964 1.964 0 0 1-.785-.671c-.214-.3-.329-.686-.329-1.171 0-.414.1-.785.3-1.113.2-.314.485-.571.87-.743.372-.17.829-.257 1.328-.257.786 0 1.428.186 1.885.571.47.386.728.871.813 1.47h-1.113c-.057-.313-.229-.599-.485-.842-.272-.242-.628-.37-1.085-.37-.414 0-.757.114-1 .328-.256.214-.37.528-.37.913 0 .314.085.571.242.757.171.2.371.342.614.457.243.114.585.228.999.37.514.172.928.329 1.256.486.314.157.585.385.8.685.214.3.328.714.328 1.228a2.5 2.5 0 0 1-.3 1.056Zm5.567-7.023v8.05h-1.042v-8.05h1.042Zm10.535.614a3.352 3.352 0 0 1 1.284 1.898h-1.099a2.402 2.402 0 0 0-.956-1.17c-.443-.3-.97-.443-1.585-.443-.542 0-1.042.129-1.47.386a2.79 2.79 0 0 0-1.028 1.085c-.242.47-.37 1.027-.37 1.67 0 .656.128 1.227.37 1.699.243.47.6.842 1.042 1.099.443.257.957.385 1.542.385.5 0 .942-.114 1.356-.314a2.742 2.742 0 0 0 1.014-.928c.27-.4.414-.885.47-1.427h-3.168v-.771h4.04v.956a4.089 4.089 0 0 1-.6 1.742c-.328.528-.77.928-1.328 1.227-.556.3-1.184.457-1.898.457-.771 0-1.456-.171-2.056-.514a3.495 3.495 0 0 1-1.384-1.456c-.329-.614-.5-1.327-.5-2.127 0-.799.171-1.513.5-2.127a3.683 3.683 0 0 1 1.384-1.456c.586-.342 1.27-.528 2.041-.528.971-.028 1.756.2 2.399.657Zm11.976 7.437h-1.042l-4.182-6.367v6.367h-1.042v-8.051h1.042l4.182 6.366v-6.366h1.042v8.05Zm15.017-1.028c-.186.328-.457.6-.828.8-.371.2-.828.314-1.385.314a3.49 3.49 0 0 1-1.427-.286 2.643 2.643 0 0 1-1-.8 2.375 2.375 0 0 1-.428-1.156h1.114c.028.229.1.457.228.671.129.215.329.4.571.543.243.142.543.214.9.214.456 0 .813-.114 1.056-.371.242-.257.37-.557.37-.942 0-.329-.085-.6-.256-.8a1.905 1.905 0 0 0-.628-.485 10.45 10.45 0 0 0-1.028-.386 12.694 12.694 0 0 1-1.228-.47 1.965 1.965 0 0 1-.785-.671c-.214-.3-.328-.686-.328-1.171 0-.414.1-.785.3-1.113.2-.314.485-.571.87-.743.372-.17.829-.257 1.328-.257.785 0 1.428.186 1.884.571.472.386.728.871.814 1.47h-1.113c-.058-.313-.229-.599-.486-.842-.27-.242-.628-.37-1.085-.37-.413 0-.756.114-.999.328-.257.214-.37.528-.37.913 0 .314.085.571.242.757.171.2.37.342.614.457.242.114.585.228.999.37.514.172.928.329 1.256.486.314.157.585.385.8.685.213.3.328.714.328 1.228a2.501 2.501 0 0 1-.3 1.056Zm9.464-7.023v.842h-2.27v7.209H74.87V39.84H72.6v-.842h5.596Zm4.854 0v4.825c0 .785.17 1.37.528 1.755.356.372.827.572 1.456.572.613 0 1.084-.186 1.427-.572.343-.385.514-.956.514-1.74v-4.826h1.042v4.825c0 1.1-.271 1.927-.814 2.47-.542.556-1.27.828-2.184.828-.9 0-1.627-.272-2.17-.828-.542-.557-.813-1.37-.813-2.47v-4.825h1.013v-.014Zm15.716 6.152a3.41 3.41 0 0 1-1.442 1.4c-.642.328-1.399.499-2.284.499h-2.555v-8.051h2.555c.885 0 1.656.157 2.284.485.628.329 1.113.785 1.442 1.4.328.613.485 1.313.485 2.14 0 .814-.157 1.528-.485 2.127Zm-1.4.157c.557-.542.829-1.299.829-2.284 0-.985-.272-1.741-.828-2.284-.557-.542-1.356-.813-2.413-.813h-1.441v6.195h1.441c1.042 0 1.856-.271 2.413-.814Zm7.195-6.309v8.05h-1.042v-8.05h1.042Zm10.221.428a3.79 3.79 0 0 1 1.413 1.47c.342.629.514 1.343.514 2.128 0 .785-.172 1.498-.514 2.127a3.79 3.79 0 0 1-1.413 1.47c-.6.357-1.271.528-2.013.528s-1.428-.171-2.027-.528a3.821 3.821 0 0 1-1.428-1.47c-.342-.629-.513-1.342-.513-2.127 0-.785.171-1.5.513-2.127a3.725 3.725 0 0 1 1.428-1.47 3.943 3.943 0 0 1 2.027-.529c.742 0 1.413.171 2.013.528Zm-3.512.828a2.556 2.556 0 0 0-1.028 1.1c-.242.47-.371 1.027-.371 1.67 0 .628.129 1.184.371 1.67.243.485.585.842 1.028 1.099.443.257.928.385 1.485.385.542 0 1.042-.128 1.484-.385a2.637 2.637 0 0 0 1.028-1.1c.243-.47.371-1.027.371-1.655 0-.642-.128-1.2-.371-1.67a2.637 2.637 0 0 0-1.028-1.1 2.875 2.875 0 0 0-1.484-.385 2.771 2.771 0 0 0-1.485.371Z"/></g><defs><clipPath id="a"><path fill="#fff" d="M0 0h117v48H0z"/></clipPath></defs></svg>
